X:17
T:Bransle double de Champaigne
R:Bransle
C:Claude Gervaise
N:repris  partir de notes de brouillons (encore des erreurs)
O:France
Z:<anamnese@laposte.net> -- http://anamnese.fr.st
M:4/4
L:1/4
Q:1/4=155
K:F
G d | d3/2 e/fe/d/ c | G dc A| BGA2 | FFGA | BGAG ||!
 GdcA | B G A2 | F/G/A/B/ AG | G^F G2 ||
GBGBAG^F2 |[1 GA^FG | ABAG :|[2 GG^FG | GFG2 ||
B2c2 | A2 GG| BBcc| AAG2 |
BBB/c/d/c/ | c3/2 B/ AG |
